X: 18966
T: Iniscealtra
R: reel
M: 4/4
K: Dmajor
D3 A ~B2 AB|defd Beec|d2 dB AGFA|BGEF ~G2 FE|
DEFA BAFA|defd ~e2 fg|agfg eBBB|1 ABde fdcd:|2 ABde fddc||
defd Adfa|bgef ~g2 fe|d2 dB AGFA|B2 Bd egsfe|
defd Adfa|bgef ~g2 ag|f ~d3 e ~B3|1 ABde fddc:|2 ABde fdcd||

